X: 17916
T: House Of Hamill, The
R: reel
M: 4/4
K: Edorian
|:EBBA BFAF|EBBc dAFD|EBBA (3Bcd ef|1 gfec dAFD:|2 gfec dAFA||
|:BE~E2 dE~E2|BE~E2 dAFA|BE~E2 (3Bcd ef|gfec dAFA:|
|:B2^GB eBGB|BA^GB ADFA|B2^GB eBGB|=gfec dAFA|
B2^GB eBGB|BA^GB ADFA|BA=GF GBef|1 gfec dAFD:|2 gfec dAFE||

